images/logo3_dark.svg

<?xml version="1.0" encoding="UTF-8" standalone="no"?>
<svg width="150px" height="60px" viewBox="0 0 150 60" version="1.1" xmlns="http://www.w3.org/2000/svg" xmlns:xlink="http://www.w3.org/1999/xlink" xmlns:sketch="http://www.bohemiancoding.com/sketch/ns">
    <!-- Generator: Sketch 3.3.3 (12081) - http://www.bohemiancoding.com/sketch -->
    <title>logo3_dark</title>
    <desc>Created with Sketch.</desc>
    <defs></defs>
    <g id="Page-1" stroke="none" stroke-width="1" fill="none" fill-rule="evenodd" sketch:type="MSPage">
        <g id="logo3_dark" sketch:type="MSArtboardGroup" fill-opacity="0.3" fill="#000000">
            <g id="Shape-+-Shape" sketch:type="MSLayerGroup" transform="translate(39.000000, 5.000000)">
                <path d="M71.8202094,49.1915264 L71.8202094,50.602531 L66.0247668,50.602531 L66.0247668,42.325663 L71.7143333,42.325663 L71.7143333,43.7360459 L67.6473121,43.7360459 L67.6473121,45.7295291 L71.1619908,45.7295291 L71.1619908,47.0355399 L67.6473121,47.0355399 L67.6473121,49.1915264 L71.8202094,49.1915264 L71.8202094,49.1915264 Z M60.2645119,50.602531 L58.6541138,50.602531 L58.6541138,47.6881956 L55.633001,42.325663 L57.3964531,42.325663 L59.4538662,46.3120076 L61.5463884,42.325663 L63.2976934,42.325663 L60.2645119,47.7109663 L60.2645119,50.602531 L60.2645119,50.602531 Z M47.5455096,42.325663 L53.235076,42.325663 L53.235076,43.7360459 L49.1679765,43.7360459 L49.1679765,45.7295291 L52.6827335,45.7295291 L52.6827335,47.0355399 L49.1679765,47.0355399 L49.1679765,49.1915264 L53.3408738,49.1915264 L53.3408738,50.602531 L47.5455096,50.602531 L47.5455096,42.325663 L47.5455096,42.325663 Z M43.4784884,50.1357711 C43.1965962,50.3306041 42.8675261,50.4722797 42.4911997,50.5614195 C42.1149517,50.650637 41.7227164,50.6954789 41.3158262,50.6954789 C40.6882498,50.6954789 40.0696074,50.602531 39.4580182,50.4153141 C38.8470559,50.2294184 38.2985535,49.9650299 37.8125893,49.622848 L38.5294276,48.2359352 C38.6001946,48.3054907 38.7271518,48.3971951 38.911475,48.5097273 C39.0957981,48.6223373 39.3132712,48.7355689 39.5638943,48.8481011 C39.8145173,48.960711 40.0931964,49.0556018 40.3987558,49.1333951 C40.704237,49.2111885 41.0180252,49.2503571 41.3394152,49.2503571 C42.2322696,49.2503571 42.6793629,48.9663843 42.6793629,48.3990603 C42.6793629,48.2125428 42.6283449,48.0575779 42.5263089,47.9323004 C42.4242728,47.808344 42.2795259,47.6996198 42.0913627,47.6059725 C41.9031995,47.5130246 41.6761654,47.4276152 41.4095551,47.3498218 C41.1430232,47.2720285 40.8451439,47.1911266 40.5160738,47.1050954 C40.1168637,46.9962935 39.7698472,46.8773886 39.4758862,46.7496242 C39.1818469,46.621238 38.9369448,46.4714023 38.7411798,46.3005834 C38.5453365,46.1298422 38.3980817,45.9274707 38.3004343,45.6947125 C38.2022384,45.4613325 38.1531796,45.1855975 38.1531796,44.8668081 C38.1531796,44.4475323 38.2316266,44.0744197 38.3885207,43.7480141 C38.5453365,43.4216863 38.7628879,43.1497593 39.04094,42.9315339 C39.3189921,42.7146296 39.6423413,42.54894 40.0109876,42.43633 C40.3789286,42.3237978 40.7750039,42.2668323 41.1978813,42.2668323 C41.7858816,42.2668323 42.3267038,42.3585367 42.8203482,42.5413238 C43.3139141,42.7234892 43.7450986,42.9397718 44.1130396,43.1876846 L43.3962013,44.4936954 C43.3413432,44.4399162 43.2412664,44.3653092 43.096441,44.2723614 C42.9516941,44.1793358 42.7750511,44.0876313 42.5677659,43.9984915 C42.3598538,43.9086523 42.1347006,43.8334236 41.8917576,43.7707848 C41.6487364,43.7088455 41.4019534,43.6778369 41.1512519,43.6778369 C40.704237,43.6778369 40.3713268,43.7594383 40.1518945,43.9225634 C39.9325405,44.0857662 39.8228244,44.3147164 39.8228244,44.6107351 C39.8228244,44.7814763 39.8636545,44.9231519 39.9459416,45.0356841 C40.0281503,45.148294 40.1480544,45.2476146 40.3049485,45.3329463 C40.4612157,45.4189775 40.6589399,45.4961491 40.8981211,45.5663263 C41.137224,45.6365035 41.4133952,45.709867 41.7271834,45.7876603 C42.1347006,45.8970839 42.5046007,46.0135019 42.8382162,46.1374583 C43.1711264,46.2614147 43.4530186,46.4170014 43.6845197,46.6042183 C43.9153938,46.790114 44.0939177,47.0140127 44.2189157,47.2739714 C44.3446191,47.5345519 44.4070789,47.8552065 44.4070789,48.2359352 C44.4070789,48.6786034 44.3229109,49.0580887 44.1544966,49.3724483 C43.9861607,49.6867303 43.7610075,49.9416375 43.4784884,50.1357711 L43.4784884,50.1357711 Z M29.6077016,42.325663 L31.2301684,42.325663 L31.2301684,49.1915264 L35.4853529,49.1915264 L35.4853529,50.602531 L29.6077016,50.602531 L29.6077016,42.325663 L29.6077016,42.325663 Z M20.7797828,42.325663 L22.4022497,42.325663 L22.4022497,49.1915264 L26.6574341,49.1915264 L26.6574341,50.602531 L20.7797828,50.602531 L20.7797828,42.325663 L20.7797828,42.325663 Z M16.4008543,49.4476771 C16.1068933,49.8208674 15.7286861,50.1168085 15.2663108,50.3344122 C14.8039356,50.5519382 14.2515931,50.66074 13.6093617,50.66074 C12.9429145,50.66074 12.376544,50.5456432 11.9103287,50.316693 C11.4441134,50.0877428 11.0659845,49.7841857 10.7757852,49.4071872 C10.486213,49.0302665 10.27642,48.5932716 10.1469549,48.0955031 C10.0181168,47.5984341 9.9530708,47.081703 9.9530708,46.5453876 L9.9530708,42.325663 L11.5755377,42.325663 L11.5755377,46.5453876 C11.5755377,46.8951078 11.6086876,47.2316164 11.6756928,47.5541362 C11.7419927,47.876656 11.8554706,48.16195 12.0162048,48.4104845 C12.1769389,48.6596408 12.3867319,48.8595253 12.6450351,49.0113039 C12.9039652,49.1624608 13.2209665,49.2383112 13.5972146,49.2383112 C13.9811428,49.2383112 14.304492,49.1605956 14.5672622,49.0050089 C14.8294054,48.8494223 15.0411576,48.6482943 15.2018918,48.3990603 C15.3625476,48.1499041 15.4761038,47.8646878 15.5430306,47.5420903 C15.6094089,47.2201922 15.6425589,46.8874917 15.6425589,46.5453876 L15.6425589,42.325663 L17.252957,42.325663 L17.252957,46.5453876 C17.252957,47.1127115 17.1846978,47.6452189 17.0475526,48.1422879 C16.9104074,48.6400564 16.6948936,49.0751861 16.4008543,49.4476771 L16.4008543,49.4476771 Z M6.90836907,48.4686935 C6.90836907,48.8190355 6.83760215,49.125779 6.69661689,49.3894681 C6.55571,49.6538566 6.36182587,49.8751906 6.11496452,50.0542474 C5.86818153,50.2332265 5.58182236,50.3691511 5.25651396,50.4621767 C4.93128392,50.5557462 4.58497271,50.602531 4.21632642,50.602531 L0.184414379,50.602531 L0.184414379,42.325663 L4.65127261,42.325663 C4.94147185,42.325663 5.2036151,42.3883018 5.43895625,42.5122582 C5.67429741,42.6362146 5.87390245,42.7980962 6.03847668,42.9954161 C6.20297255,43.1939795 6.33055677,43.4191994 6.42044565,43.6721637 C6.5104129,43.9245063 6.55571,44.1793358 6.55571,44.4354864 C6.55571,44.8396853 6.4535956,45.2184712 6.2501505,45.5719995 C6.04607845,45.9262273 5.74827745,46.1880512 5.35666914,46.3587924 C5.83432626,46.4992245 6.21253353,46.7496242 6.49129094,47.1107686 C6.76934303,47.4719131 6.90836907,47.9247619 6.90836907,48.4686935 L6.90836907,48.4686935 Z M4.69272965,43.9807724 C4.51608663,43.7941772 4.29861354,43.7012293 4.04031036,43.7012293 L1.80688124,43.7012293 L1.80688124,45.7876603 L3.96954343,45.7876603 C4.24375546,45.7876603 4.47721577,45.6947125 4.66914067,45.5074956 C4.86114395,45.3215998 4.95675374,45.0648274 4.95675374,44.7384219 C4.95675374,44.4197102 4.86874571,44.1673676 4.69272965,43.9807724 L4.69272965,43.9807724 Z M5.19789418,47.7401096 C5.14687617,47.6047291 5.07861705,47.4858242 4.99248986,47.3846384 C4.90573573,47.2834527 4.80432665,47.2037165 4.68638178,47.1455852 C4.56906386,47.0873762 4.4395988,47.0583106 4.29861354,47.0583106 L1.80688124,47.0583106 L1.80688124,49.2383112 L4.21632642,49.2383112 C4.36491344,49.2383112 4.50464481,49.2111885 4.63348292,49.1567875 C4.76294799,49.1023866 4.87454499,49.0264584 4.96890089,48.9290808 C5.06262983,48.8323248 5.13731519,48.7178498 5.1920949,48.5856555 C5.24695298,48.4534612 5.27438202,48.3137286 5.27438202,48.1656803 C5.27438202,48.0183315 5.2489122,47.876656 5.19789418,47.7401096 L5.19789418,47.7401096 Z" id="Shape" sketch:type="MSShapeGroup"></path>
                <path d="M35.8039216,34.3205665 C26.3251509,34.3205665 18.6412582,26.7005508 18.6412582,17.3009253 C18.6412582,7.90122209 26.3251509,0.281284116 35.8039216,0.281284116 C45.2826922,0.281284116 52.9665849,7.90122209 52.9665849,17.3009253 C52.9665849,26.7005508 45.2826922,34.3205665 35.8039216,34.3205665 L35.8039216,34.3205665 Z M35.8039216,6.76494214 C29.9362231,6.76494214 25.1794007,11.4820466 25.1794007,17.3009253 C25.1794007,23.1197263 29.9362231,27.8368307 35.8039216,27.8368307 C41.6716984,27.8368307 46.4284424,23.1197263 46.4284424,17.3009253 C46.4284424,11.4820466 41.6716984,6.76494214 35.8039216,6.76494214 L35.8039216,6.76494214 Z M35.8039216,19.7322582 C34.4497891,19.7322582 33.3521573,18.6437733 33.3521573,17.3009253 C33.3521573,15.9580772 34.4497891,14.8695147 35.8039216,14.8695147 C37.158054,14.8695147 38.2557642,15.9580772 38.2557642,17.3009253 C38.2557642,18.6437733 37.158054,19.7322582 35.8039216,19.7322582 L35.8039216,19.7322582 Z" id="Shape" sketch:type="MSShapeGroup"></path>
            </g>
        </g>
    </g>
</svg>

<svg width="150" height="60" xmlns="http://www.w3.org/2000/svg"><g id="Page-1" stroke="none" stroke-width="1" fill="none" fill-rule="evenodd"><g id="logo3_dark" fill-opacity=".3" fill="#000"><g id="Shape-+-Shape" transform="translate(39 5)"><path d="M71.82 49.192v1.41h-5.795v-8.276h5.69v1.41h-4.068v1.994h3.515v1.306h-3.515v2.156h4.173zm-11.555 1.41h-1.61v-2.914l-3.022-5.362h1.763l2.058 3.986 2.092-3.986h1.752l-3.033 5.385v2.892zm-12.72-8.276h5.69v1.41h-4.067v1.994h3.515v1.306h-3.515v2.156h4.173v1.41h-5.795v-8.276zm-4.067 7.81a2.888 2.888 0 01-.987.425 5.08 5.08 0 01-1.175.134 6.31 6.31 0 01-1.858-.28 5.735 5.735 0 01-1.645-.792l.716-1.387c.071.07.198.161.382.274.185.112.402.226.653.338.25.113.53.208.835.285.305.078.619.117.94.117.893 0 1.34-.284 1.34-.85a.714.714 0 00-.153-.468 1.306 1.306 0 00-.435-.326 4.22 4.22 0 00-.681-.256 33.275 33.275 0 00-.894-.245 7.727 7.727 0 01-1.04-.355 2.834 2.834 0 01-.735-.45 1.636 1.636 0 01-.44-.605 2.125 2.125 0 01-.148-.828c0-.42.079-.793.236-1.119.156-.326.374-.598.652-.816.278-.217.601-.383.97-.496a4.04 4.04 0 011.187-.17c.588 0 1.129.093 1.622.275.494.182.925.399 1.293.647l-.717 1.306a2.037 2.037 0 00-.3-.222 3.657 3.657 0 00-.528-.274 4.593 4.593 0 00-.676-.227 2.986 2.986 0 00-.74-.093c-.448 0-.78.081-1 .245-.22.163-.33.392-.33.688a.7.7 0 00.124.425c.082.112.202.212.359.297.156.086.354.163.593.233.24.07.515.144.83.222.407.11.777.226 1.11.35.333.123.615.279.847.466.23.186.409.41.534.67.126.26.188.581.188.962 0 .443-.084.822-.253 1.136a2.13 2.13 0 01-.676.764zm-13.87-7.81h1.622v6.866h4.255v1.41h-5.877v-8.276zm-8.828 0h1.622v6.866h4.255v1.41H20.78v-8.276zm-4.38 7.122a3.075 3.075 0 01-1.134.886c-.462.218-1.014.327-1.657.327-.666 0-1.232-.115-1.699-.344a3.165 3.165 0 01-1.134-.91c-.29-.377-.5-.814-.629-1.311a6.154 6.154 0 01-.194-1.55v-4.22h1.623v4.22c0 .35.033.686.1 1.008.066.323.18.608.34.856.16.25.37.45.629.601.259.151.576.227.952.227.384 0 .707-.077.97-.233a1.9 1.9 0 00.635-.606c.16-.25.274-.534.341-.857.066-.322.1-.655.1-.997v-4.22h1.61v4.22c0 .568-.068 1.1-.205 1.597a3.64 3.64 0 01-.647 1.306zm-9.492-.98c0 .351-.07.658-.211.921a1.934 1.934 0 01-.582.665 2.723 2.723 0 01-.858.408c-.326.094-.672.14-1.04.14H.183v-8.276H4.65c.29 0 .553.062.788.186s.435.286.6.483c.164.199.292.424.381.677a2.242 2.242 0 01-.17 1.9 1.855 1.855 0 01-.893.787c.477.14.856.39 1.134.752.278.36.417.814.417 1.358zm-2.215-4.487a.863.863 0 00-.653-.28H1.807v2.087H3.97a.965.965 0 00.7-.28c.191-.186.287-.443.287-.77 0-.318-.088-.57-.264-.757zm.505 3.76a1.191 1.191 0 00-.206-.356.956.956 0 00-.306-.24.86.86 0 00-.387-.087H1.807v2.18h2.41c.148 0 .288-.027.416-.081a.995.995 0 00.336-.228 1.085 1.085 0 00.305-.763c0-.148-.025-.29-.076-.426zM35.804 34.32c-9.479 0-17.163-7.62-17.163-17.02 0-9.399 7.684-17.019 17.163-17.019s17.163 7.62 17.163 17.02c0 9.4-7.684 17.02-17.163 17.02zm0-27.555c-5.868 0-10.625 4.717-10.625 10.536s4.757 10.536 10.625 10.536S46.428 23.12 46.428 17.3 41.672 6.765 35.804 6.765zm0 12.967a2.442 2.442 0 01-2.452-2.431 2.442 2.442 0 012.452-2.431 2.442 2.442 0 012.452 2.43 2.442 2.442 0 01-2.452 2.432z" id="Shape"/></g></g></g></svg>
